X: 22241
T: La Gracieuse
R: mazurka
M: 3/4
K: Gmajor
|:GA|B2 Be dB|d2 d2 GA|BB Be dB|c4 AB|cc cf ed|
f2 fe ed|1 de dc Ac|B2 G2:|2 de dc AF|G4||
|:AB|c2 A2 FA|GB D2 D2|cA FA EF|GB de dB|
c2 A2 FA|GB D2 D2|cA FA EF|G4:|

